images/LandingPage/Payables.svg

<?xml version="1.0" encoding="UTF-8"?>
<svg width="204px" height="115px" viewBox="0 0 204 115" version="1.1" xmlns="http://www.w3.org/2000/svg" xmlns:xlink="http://www.w3.org/1999/xlink">
    <title>4031FCDB-0F69-44DE-9355-0536748C9592</title>
    <defs>
        <linearGradient x1="50%" y1="100%" x2="50%" y2="-32.5762913%" id="linearGradient-1">
            <stop stop-color="#FF6EAB" offset="0%"></stop>
            <stop stop-color="#FCD2A5" offset="100%"></stop>
            <stop stop-color="#FDEFE6" offset="100%"></stop>
        </linearGradient>
        <linearGradient x1="50%" y1="100%" x2="50%" y2="-32.5762913%" id="linearGradient-2">
            <stop stop-color="#FF6EAB" offset="0%"></stop>
            <stop stop-color="#FCD2A5" offset="100%"></stop>
            <stop stop-color="#FDEFE6" offset="100%"></stop>
        </linearGradient>
        <linearGradient x1="50%" y1="100%" x2="50%" y2="-32.5762913%" id="linearGradient-3">
            <stop stop-color="#FF6EAB" offset="0%"></stop>
            <stop stop-color="#FCD2A5" offset="100%"></stop>
            <stop stop-color="#FDEFE6" offset="100%"></stop>
        </linearGradient>
        <linearGradient x1="50%" y1="100%" x2="50%" y2="-32.5762913%" id="linearGradient-4">
            <stop stop-color="#FF6EAB" offset="0%"></stop>
            <stop stop-color="#FCD2A5" offset="100%"></stop>
            <stop stop-color="#FDEFE6" offset="100%"></stop>
        </linearGradient>
        <linearGradient x1="50%" y1="100%" x2="50%" y2="-32.5762913%" id="linearGradient-5">
            <stop stop-color="#FF6EAB" offset="0%"></stop>
            <stop stop-color="#FCD2A5" offset="100%"></stop>
            <stop stop-color="#FDEFE6" offset="100%"></stop>
        </linearGradient>
        <filter x="-18.5%" y="-933.1%" width="137.0%" height="1966.2%" filterUnits="objectBoundingBox" id="filter-6">
            <feGaussianBlur stdDeviation="4.66560025" in="SourceGraphic"></feGaussianBlur>
        </filter>
    </defs>
    <g id="Page-1" stroke="none" stroke-width="1" fill="none" fill-rule="evenodd">
        <g id="assets-homepage" transform="translate(-1174.000000, -354.000000)">
            <g id="icon-ap" transform="translate(1174.000000, 354.000000)">
                <rect id="Rectangle-Copy-5" fill-opacity="0" fill="#D8D8D8" x="0" y="0" width="204" height="108"></rect>
                <g id="icon/ap" transform="translate(54.000000, 4.000000)">
                    <path d="M19.2987525,0 L19.298,11.111 L38.305,11.111 L38.3050996,0 L38.5975049,0 L38.597,11.111 L57.603,11.111 L57.603852,0 L57.8962574,0 L57.896,11.111 L76.902,11.111 L76.9026045,0 L77.1950098,0 L77.195,11.111 L96.201357,11.1114029 L96.201357,11.4038083 L77.195,11.403 L77.195,20.76 L96.201357,20.7607792 L96.201357,21.0531845 L77.195,21.053 L77.195,30.41 L96.201357,30.4101554 L96.201357,30.7025607 L77.195,30.702 L77.195,40.059 L96.201357,40.0595316 L96.201357,40.351937 L77.195,40.351 L77.195,49.708 L96.201357,49.7089079 L96.201357,50.0013132 L77.195,50.001 L77.195,59.358 L96.201357,59.3582841 L96.201357,59.6506894 L77.195,59.65 L77.195,69.007 L96.201357,69.0076603 L96.201357,69.3000657 L77.195,69.3 L77.1950098,80.1190633 L76.9026045,80.1190633 L76.902,69.3 L57.896,69.3 L57.8962574,80.1190633 L57.603852,80.1190633 L57.603,69.3 L38.597,69.3 L38.5975049,80.1190633 L38.3050996,80.1190633 L38.305,69.3 L19.298,69.3 L19.2987525,80.1190633 L19.0063471,80.1190633 L19.006,69.3 L0,69.3000657 L0,69.0076603 L19.006,69.007 L19.006,59.65 L0,59.6506894 L0,59.3582841 L19.006,59.358 L19.006,50.001 L0,50.0013132 L0,49.7089079 L19.006,49.708 L19.006,40.351 L0,40.351937 L0,40.0595316 L19.006,40.059 L19.006,30.702 L0,30.7025607 L0,30.4101554 L19.006,30.41 L19.006,21.053 L0,21.0531845 L0,20.7607792 L19.006,20.76 L19.006,11.403 L0,11.4038083 L0,11.1114029 L19.006,11.111 L19.0063471,0 L19.2987525,0 Z M38.305,59.65 L19.298,59.65 L19.298,69.007 L38.305,69.007 L38.305,59.65 Z M57.603,59.65 L38.597,59.65 L38.597,69.007 L57.603,69.007 L57.603,59.65 Z M76.902,59.65 L57.896,59.65 L57.896,69.007 L76.902,69.007 L76.902,59.65 Z M38.305,50.001 L19.298,50.001 L19.298,59.358 L38.305,59.358 L38.305,50.001 Z M57.603,50.001 L38.597,50.001 L38.597,59.358 L57.603,59.358 L57.603,50.001 Z M76.902,50.001 L57.896,50.001 L57.896,59.358 L76.902,59.358 L76.902,50.001 Z M38.305,40.351 L19.298,40.351 L19.298,49.708 L38.305,49.708 L38.305,40.351 Z M57.603,40.351 L38.597,40.351 L38.597,49.708 L57.603,49.708 L57.603,40.351 Z M76.902,40.351 L57.896,40.351 L57.896,49.708 L76.902,49.708 L76.902,40.351 Z M38.305,30.702 L19.298,30.702 L19.298,40.059 L38.305,40.059 L38.305,30.702 Z M57.603,30.702 L38.597,30.702 L38.597,40.059 L57.603,40.059 L57.603,30.702 Z M76.902,30.702 L57.896,30.702 L57.896,40.059 L76.902,40.059 L76.902,30.702 Z M38.305,21.053 L19.298,21.053 L19.298,30.41 L38.305,30.41 L38.305,21.053 Z M57.603,21.053 L38.597,21.053 L38.597,30.41 L57.603,30.41 L57.603,21.053 Z M76.902,21.053 L57.896,21.053 L57.896,30.41 L76.902,30.41 L76.902,21.053 Z M38.305,11.403 L19.298,11.403 L19.298,20.76 L38.305,20.76 L38.305,11.403 Z M57.603,11.403 L38.597,11.403 L38.597,20.76 L57.603,20.76 L57.603,11.403 Z M76.902,11.403 L57.896,11.403 L57.896,20.76 L76.902,20.76 L76.902,11.403 Z" id="Combined-Shape" fill="#F2D1CF"></path>
                    <path d="M7.55570147,34.7962355 L12.3278617,34.7962355 C13.4324312,34.7962355 14.3278617,35.691666 14.3278617,36.7962355 L14.3278617,52.6329613 L14.3278617,52.6329613 L5.55570147,52.6329613 L5.55570147,36.7962355 C5.55570147,35.691666 6.45113197,34.7962355 7.55570147,34.7962355 Z" id="GREEN-TOP-WITH-OPACITY" fill="#DEE0DA"></path>
                    <path d="M5.55570147,45.4231152 L14.3278617,40.4162375 L14.3278617,50.6972618 C14.3278617,51.8018313 13.4324312,52.6972618 12.3278617,52.6972618 L7.55570147,52.6972618 C6.45113197,52.6972618 5.55570147,51.8018313 5.55570147,50.6972618 L5.55570147,45.4231152 L5.55570147,45.4231152 Z" id="RED-BOTTOM" fill="url(#linearGradient-1)"></path>
                    <path d="M28.0240753,24.2696432 L32.7962355,24.2696432 C33.900805,24.2696432 34.7962355,25.1650737 34.7962355,26.2696432 L34.7962355,36.2582622 L34.7962355,36.2582622 L26.0240753,34.7962355 L26.0240753,26.2696432 C26.0240753,25.1650737 26.9195058,24.2696432 28.0240753,24.2696432 Z" id="GREEN-TOP-WITH-OPACITY" fill="#DEE0DA"></path>
                    <path d="M63.1127161,25.7316699 L67.8848763,25.7316699 C68.9894458,25.7316699 69.8848763,26.6271004 69.8848763,27.7316699 L69.8848763,61.9899322 L69.8848763,61.9899322 L61.1127161,61.9899322 L61.1127161,27.7316699 C61.1127161,26.6271004 62.0081466,25.7316699 63.1127161,25.7316699 Z" id="GREEN-TOP-WITH-OPACITY-Copy" fill="#DEE0DA"></path>
                    <path d="M82.9962793,16.9595097 L87.7684395,16.9595097 C88.873009,16.9595097 89.7684395,17.8549402 89.7684395,18.9595097 L89.7684395,53.2177719 L89.7684395,53.2177719 L80.9962793,53.2177719 L80.9962793,18.9595097 C80.9962793,17.8549402 81.8917098,16.9595097 82.9962793,16.9595097 Z" id="GREEN-TOP-WITH-OPACITY-Copy-3" fill="#DEE0DA"></path>
                    <path d="M26.0240753,33.9190195 L34.7962355,35.6734515 L34.7962355,55.3114467 C34.7962355,56.4160162 33.900805,57.3114467 32.7962355,57.3114467 L28.0240753,57.3114467 C26.9195058,57.3114467 26.0240753,56.4160162 26.0240753,55.3114467 L26.0240753,33.9190195 L26.0240753,33.9190195 Z" id="RED-BOTTOM" fill="url(#linearGradient-2)"></path>
                    <path d="M61.1127161,47.0772598 L69.8848763,47.0772598 L69.8848763,61.1595535 C69.8848763,62.264123 68.9894458,63.1595535 67.8848763,63.1595535 L65.4987962,63.1595535 L63.1127161,63.1595535 C62.0081466,63.1595535 61.1127161,62.264123 61.1127161,61.1595535 L61.1127161,47.0772598 L61.1127161,47.0772598 Z" id="RED-BOTTOM-Copy" fill="url(#linearGradient-3)"></path>
                    <path d="M80.9962793,30.4101554 L89.7684395,30.4101554 L89.7684395,54.4342307 C89.7684395,55.5388002 88.873009,56.4342307 87.7684395,56.4342307 L82.9962793,56.4342307 C81.8917098,56.4342307 80.9962793,55.5388002 80.9962793,54.4342307 L80.9962793,30.4101554 L80.9962793,30.4101554 Z" id="RED-BOTTOM-Copy-3" fill="url(#linearGradient-4)"></path>
                    <path d="M46.1532064,35.3810462 L50.9253666,35.3810462 C52.0299361,35.3810462 52.9253666,36.2764767 52.9253666,37.3810462 L52.9253666,58.4810681 L52.9253666,58.4810681 L44.1532064,58.4810681 L44.1532064,37.3810462 C44.1532064,36.2764767 45.0486369,35.3810462 46.1532064,35.3810462 Z" id="GREEN-TOP-WITH-OPACITY" fill="#DEE0DA"></path>
                    <path d="M44.1532064,49.8551105 L52.9253666,50.5861239 L52.9253666,64.6684176 C52.9253666,65.7729871 52.0299361,66.6684176 50.9253666,66.6684176 L46.1532064,66.6684176 C45.0486369,66.6684176 44.1532064,65.7729871 44.1532064,64.6684176 L44.1532064,49.8551105 L44.1532064,49.8551105 Z" id="RED-BOTTOM" fill="url(#linearGradient-5)"></path>
                    <path d="M90.0896966,30.0331659 C92.2864043,30.9045902 94.2109254,32.3437754 95.6672797,34.2020334 L95.7843326,34.3536184 L94.620768,35.2388526 C93.3123392,33.5190347 91.5592711,32.1890028 89.550587,31.3921665 C83.4565504,28.9746887 76.5566039,31.9551282 74.1391233,38.0491644 C71.4479674,44.8330955 68.1694688,48.1225573 64.2450677,47.6704379 L64.1259487,47.6555918 C61.1902248,47.2621204 58.2637434,48.004637 55.3215143,49.904324 C54.4579426,50.461881 53.5184926,50.891991 52.5321676,51.1813703 C46.9230116,52.8270484 41.044527,49.6626019 39.314589,44.1016147 L39.263441,43.9323688 C38.9498507,42.8635225 38.501341,41.8389916 37.9287481,40.8835291 C34.206208,34.6718779 26.1529529,32.6540514 19.9412924,36.3765821 L19.4240593,36.6878767 L18.9162154,36.9961944 L18.4177622,37.3015332 L17.9287014,37.6038912 L17.4490344,37.9032664 C17.3698728,37.9529136 17.2911026,38.0024364 17.212724,38.0518349 L16.7471506,38.3467323 L16.2909749,38.638642 L15.8441984,38.9275622 L15.4068226,39.2134908 L14.978849,39.4964259 L14.5602793,39.7763656 L14.1511149,40.0533078 L13.7513575,40.3272507 L13.3610084,40.5981923 L12.9800692,40.8661306 C12.9173636,40.9105366 12.8550502,40.9548174 12.7931289,40.9989729 L12.4263075,41.2624027 L12.0689,41.5228243 C12.0101166,41.5659771 11.9517256,41.6090045 11.8937269,41.6519064 L11.5504429,41.9078122 L11.2165765,42.1607049 C11.161717,42.2026025 11.1072499,42.2443744 11.0531754,42.2860207 L10.7334383,42.5343902 C10.6809339,42.5755337 10.628822,42.6165514 10.5771028,42.6574434 L10.2714985,42.9012853 C10.2213497,42.941674 10.1715936,42.9819367 10.1222301,43.0220736 L9.67178542,43.390422 L9.37315278,43.6328994 L8.93433331,43.9856667 L8.50638994,44.3252921 L8.08923352,44.6517718 L7.68277485,44.9651022 L7.28692477,45.2652794 L7.02887434,45.4580885 L6.65050708,45.7363356 L6.40402929,45.9145212 L6.04289713,46.1708279 L5.80782684,46.3343831 L5.57727331,46.4920841 L5.35121012,46.64393 L5.12961085,46.7899196 L4.91244908,46.9300518 L4.69969838,47.0643255 L4.49133233,47.1927396 L4.28732451,47.3152929 L4.08764849,47.4319845 L3.89227786,47.5428132 L3.7011862,47.6477779 C3.6381992,47.6817886 3.57592096,47.7148219 3.51434707,47.7468774 L3.33173407,47.8401108 L3.15332076,47.9274768 C3.03577258,47.9837648 2.92100658,48.0361406 2.80898754,48.0846025 L2.64301478,48.15436 C2.58837433,48.1766339 2.53441622,48.1979293 2.48113604,48.2182458 L2.32332488,48.2762587 C2.16753871,48.3313348 2.01781428,48.3776001 1.8740327,48.4150495 L1.73222766,48.4495601 C1.17289608,48.5758465 0.708015916,48.5610529 0.329977595,48.4048617 L0.283174556,48.3846013 L0.886446805,47.0528413 C0.986391223,47.098115 1.21975175,47.0923542 1.58295352,46.9869865 C2.03389812,46.8561639 2.61289723,46.590386 3.31014927,46.1887803 C3.38248717,46.1471149 3.45599784,46.104049 3.53068,46.0595831 L3.75823968,45.921986 C3.79675162,45.8983533 3.83555611,45.8743708 3.87465299,45.8500384 L4.11274179,45.6998469 L4.35784047,45.5412627 C4.39927398,45.5141328 4.44099925,45.4866533 4.48301612,45.4588242 L4.73861531,45.2876565 C4.78179795,45.2584297 4.82527188,45.2288534 4.86903693,45.1989279 L5.13511946,45.015183 L5.40818135,44.8230571 L5.68821497,44.6225529 L5.9752127,44.4136734 L6.26916689,44.1964214 L6.57006994,43.9707999 L7.0344369,43.616681 L7.35267868,43.3701483 L7.6778426,43.115256 L8.00992104,42.8520073 L8.34890636,42.5804048 C8.40597907,42.5344417 8.46333924,42.4881307 8.52098672,42.4414718 L8.87031807,42.1573443 L9.04756715,42.0121504 C9.24704517,41.8483689 9.4527597,41.682664 9.66471279,41.5150331 L9.98732161,41.262142 C10.0418696,41.2197526 10.0968077,41.1772427 10.1521357,41.1346124 L10.4887841,40.8773841 L10.8347943,40.6172619 C10.9516914,40.530072 11.0701491,40.4423994 11.1901676,40.3542439 L11.5549057,40.0883281 L11.9290101,39.8195126 C12.0552727,39.7294239 12.1830967,39.6388517 12.3124823,39.5477954 L12.7053238,39.2731746 L13.1075363,38.9956482 L13.5191211,38.7152142 L13.94008,38.4318707 L14.3704143,38.1456158 L14.8101257,37.8564475 L15.2592156,37.5643639 L15.7176856,37.2693629 L16.1855373,36.9714427 C16.2642945,36.9215459 16.3434426,36.8715275 16.4229817,36.8213873 L16.9049087,36.5190845 L17.3962212,36.2138576 L17.8969208,35.9057046 L18.4070088,35.5946236 L18.926487,35.2806126 C19.0138492,35.2280331 19.1016028,35.1753315 19.1897478,35.1225077 C26.0940148,30.9849109 35.0452149,33.2277269 39.1828219,40.1319834 C39.7768304,41.1231811 40.2506964,42.1812537 40.5946274,43.2838321 L40.6663345,43.5207719 C42.101317,48.4117894 47.2295532,51.2134593 52.1205707,49.7784768 C52.9720197,49.528669 53.783007,49.1573733 54.5284852,48.6760622 C57.6951319,46.6314773 60.9091,45.7942443 64.1467003,46.1844446 L64.3201656,46.2065225 C66.7228514,46.5285514 68.9593663,44.9342386 71.0021575,41.307316 L71.1609435,41.0205827 C71.5569257,40.2934545 71.9455292,39.4890761 72.3265502,38.606588 L72.4785537,38.2494248 C72.5290864,38.1289804 72.5794839,38.0071454 72.6297455,37.8839177 L72.7801228,37.5100544 C75.4953457,30.665463 83.2451049,27.3179461 90.0896966,30.0331659 Z" id="Path-14" fill="#9BE5FF" fill-rule="nonzero"></path>
                </g>
                <ellipse id="Oval" fill="#8C8C8C" filter="url(#filter-6)" cx="101.875" cy="99.75" rx="37.875" ry="1"></ellipse>
                <path d="M148.5,4 L56.5,4 C55.1192881,4 54,5.11928813 54,6.5 L54,82.5 C54,83.8807119 55.1192881,85 56.5,85 L148.5,85 C149.880712,85 151,83.8807119 151,82.5 L151,6.5 C151,5.11928813 149.880712,4 148.5,4 Z M148.5,4.5 C149.604569,4.5 150.5,5.3954305 150.5,6.5 L150.5,82.5 C150.5,83.6045695 149.604569,84.5 148.5,84.5 L56.5,84.5 C55.3954305,84.5 54.5,83.6045695 54.5,82.5 L54.5,6.5 C54.5,5.3954305 55.3954305,4.5 56.5,4.5 L148.5,4.5 Z" id="Rectangle" fill="#F2D1CF" fill-rule="nonzero"></path>
            </g>
        </g>
    </g>
</svg>

<?xml version="1.0" encoding="UTF-8"?>
<svg version="1.1" viewBox="0 0 204 115" xmlns="http://www.w3.org/2000/svg">
<defs>
<linearGradient id="a" x1="50%" x2="50%" y1="100%" y2="-32.576%">
<stop stop-color="#FF6EAB" offset="0"/>
<stop stop-color="#FCD2A5" offset="1"/>
<stop stop-color="#FDEFE6" offset="1"/>
</linearGradient>
<filter id="b" x="-18.5%" y="-933.1%" width="137%" height="1966.2%">
<feGaussianBlur in="SourceGraphic" stdDeviation="4.66560025"/>
</filter>
</defs>
<g fill="none" fill-rule="evenodd">
<g transform="translate(-1174 -354)">
<g transform="translate(1174 354)">
<rect width="204" height="108" fill="#D8D8D8" fill-opacity="0"/>
<g transform="translate(54 4)">
<path d="m19.299 0-7.525e-4 11.111h19.007l9.96e-5 -11.111h0.29241l-5.049e-4 11.111h19.006l8.52e-4 -11.111h0.29241l-2.574e-4 11.111h19.006l6.045e-4 -11.111h0.29241l-9.8e-6 11.111 19.006 4.029e-4v0.29241l-19.006-8.083e-4v9.357l19.006 7.792e-4v0.29241l-19.006-1.845e-4v9.357l19.006 1.554e-4v0.29241l-19.006-5.607e-4v9.357l19.006 5.316e-4v0.29241l-19.006-9.37e-4v9.357l19.006 9.079e-4v0.29241l-19.006-3.132e-4v9.357l19.006 2.841e-4v0.29241l-19.006-6.894e-4v9.357l19.006 6.603e-4v0.29241l-19.006-6.57e-5 9.8e-6 10.819h-0.29241l-6.045e-4 -10.819h-19.006l2.574e-4 10.819h-0.29241l-8.52e-4 -10.819h-19.006l5.049e-4 10.819h-0.29241l-9.96e-5 -10.819h-19.007l7.525e-4 10.819h-0.29241l-3.471e-4 -10.819-19.006 6.57e-5v-0.29241l19.006-6.603e-4v-9.357l-19.006 6.894e-4v-0.29241l19.006-2.841e-4v-9.357l-19.006 3.132e-4v-0.29241l19.006-9.079e-4v-9.357l-19.006 9.37e-4v-0.29241l19.006-5.316e-4v-9.357l-19.006 5.607e-4v-0.29241l19.006-1.554e-4v-9.357l-19.006 1.845e-4v-0.29241l19.006-7.792e-4v-9.357l-19.006 8.083e-4v-0.29241l19.006-4.029e-4 3.471e-4 -11.111h0.29241zm19.006 59.65h-19.007v9.357h19.007v-9.357zm19.298 0h-19.006v9.357h19.006v-9.357zm19.299 0h-19.006v9.357h19.006v-9.357zm-38.597-9.649h-19.007v9.357h19.007v-9.357zm19.298 0h-19.006v9.357h19.006v-9.357zm19.299 0h-19.006v9.357h19.006v-9.357zm-38.597-9.65h-19.007v9.357h19.007v-9.357zm19.298 0h-19.006v9.357h19.006v-9.357zm19.299 0h-19.006v9.357h19.006v-9.357zm-38.597-9.649h-19.007v9.357h19.007v-9.357zm19.298 0h-19.006v9.357h19.006v-9.357zm19.299 0h-19.006v9.357h19.006v-9.357zm-38.597-9.649h-19.007v9.357h19.007v-9.357zm19.298 0h-19.006v9.357h19.006v-9.357zm19.299 0h-19.006v9.357h19.006v-9.357zm-38.597-9.65h-19.007v9.357h19.007v-9.357zm19.298 0h-19.006v9.357h19.006v-9.357zm19.299 0h-19.006v9.357h19.006v-9.357z" fill="#F2D1CF"/>
<path id="GREEN-TOP-WITH-OPACITY" d="m7.5557 34.796h4.7722c1.1046 0 2 0.89543 2 2v15.837h-8.7722v-15.837c0-1.1046 0.89543-2 2-2z" fill="#DEE0DA"/>
<path id="RED-BOTTOM" d="m5.5557 45.423 8.7722-5.0069v10.281c0 1.1046-0.89543 2-2 2h-4.7722c-1.1046 0-2-0.89543-2-2v-5.2741z" fill="url(#a)"/>
<path id="c" d="m28.024 24.27h4.7722c1.1046 0 2 0.89543 2 2v9.9886l-8.7722-1.462v-8.5266c0-1.1046 0.89543-2 2-2z" fill="#DEE0DA"/>
<path d="m63.113 25.732h4.7722c1.1046 0 2 0.89543 2 2v34.258h-8.7722v-34.258c0-1.1046 0.89543-2 2-2z" fill="#DEE0DA"/>
<path d="m82.996 16.96h4.7722c1.1046 0 2 0.89543 2 2v34.258h-8.7722v-34.258c0-1.1046 0.89543-2 2-2z" fill="#DEE0DA"/>
<path id="d" d="m26.024 33.919 8.7722 1.7544v19.638c0 1.1046-0.89543 2-2 2h-4.7722c-1.1046 0-2-0.89543-2-2v-21.392z" fill="url(#a)"/>
<path d="m61.113 47.077h8.7722v14.082c0 1.1046-0.89543 2-2 2h-2.3861-2.3861c-1.1046 0-2-0.89543-2-2v-14.082z" fill="url(#a)"/>
<path d="m80.996 30.41h8.7722v24.024c0 1.1046-0.89543 2-2 2h-4.7722c-1.1046 0-2-0.89543-2-2v-24.024z" fill="url(#a)"/>
<path d="m46.153 35.381h4.7722c1.1046 0 2 0.89543 2 2v21.1h-8.7722v-21.1c0-1.1046 0.89543-2 2-2z" fill="#DEE0DA"/>
<path d="m44.153 49.855 8.7722 0.73101v14.082c0 1.1046-0.89543 2-2 2h-4.7722c-1.1046 0-2-0.89543-2-2v-14.813z" fill="url(#a)"/>
<path d="m90.09 30.033c2.1967 0.87142 4.1212 2.3106 5.5776 4.1689l0.11705 0.15158-1.1636 0.88523c-1.3084-1.7198-3.0615-3.0498-5.0702-3.8467-6.094-2.4175-12.994 0.56296-15.411 6.657-2.6912 6.7839-5.9697 10.073-9.8941 9.6213l-0.11912-0.014846c-2.9357-0.39347-5.8622 0.34905-8.8044 2.2487-0.86357 0.55756-1.803 0.98767-2.7893 1.277-5.6092 1.6457-11.488-1.5188-13.218-7.0798l-0.051148-0.16925c-0.31359-1.0688-0.7621-2.0934-1.3347-3.0488-3.7225-6.2117-11.776-8.2295-17.987-4.5069l-0.51723 0.31129-0.50784 0.30832-0.49845 0.30534-0.48906 0.30236-0.47967 0.29938c-0.079162 0.049647-0.15793 0.09917-0.23631 0.14857l-0.46557 0.2949-0.45618 0.29191-0.44678 0.28892-0.43738 0.28593-0.42797 0.28294-0.41857 0.27994-0.40916 0.27694-0.39976 0.27394-0.39035 0.27094-0.38094 0.26794c-0.062706 0.044406-0.12502 0.088687-0.18694 0.13284l-0.36682 0.26343-0.35741 0.26042c-0.058783 0.043153-0.11717 0.08618-0.17517 0.12908l-0.34328 0.25591-0.33387 0.25289c-0.05486 0.041898-0.10933 0.08367-0.1634 0.12532l-0.31974 0.24837c-0.052504 0.041144-0.10462 0.082161-0.15634 0.12305l-0.3056 0.24384c-0.050149 0.040389-0.099905 0.080651-0.14927 0.12079l-0.45044 0.36835-0.29863 0.24248-0.43882 0.35277-0.42794 0.33963-0.41716 0.32648-0.40646 0.31333-0.39585 0.30018-0.25805 0.19281-0.37837 0.27825-0.24648 0.17819-0.36113 0.25631-0.23507 0.16356-0.23055 0.1577-0.22606 0.15185-0.2216 0.14599-0.21716 0.14013-0.21275 0.13427-0.20837 0.12841-0.20401 0.12255-0.19968 0.11669-0.19537 0.11083-0.19109 0.10496c-0.062987 0.034011-0.12527 0.067044-0.18684 0.0991l-0.18261 0.093233-0.17841 0.087366c-0.11755 0.056288-0.23231 0.10866-0.34433 0.15713l-0.16597 0.069758c-0.05464 0.022274-0.1086 0.043569-0.16188 0.063886l-0.15781 0.058013c-0.15579 0.055076-0.30551 0.10134-0.44929 0.13879l-0.14181 0.034511c-0.55933 0.12629-1.0242 0.11149-1.4023-0.044698l-0.046803-0.02026 0.60327-1.3318c0.099944 0.045274 0.3333 0.039513 0.69651-0.065855 0.45094-0.13082 1.0299-0.3966 1.7272-0.79821 0.072338-0.041665 0.14585-0.084731 0.22053-0.1292l0.22756-0.1376c0.038512-0.023633 0.077316-0.047615 0.11641-0.071948l0.23809-0.15019 0.2451-0.15858c0.041434-0.02713 0.083159-0.054609 0.12518-0.082438l0.2556-0.17117c0.043183-0.029227 0.086657-0.058803 0.13042-0.088729l0.26608-0.18374 0.27306-0.19213 0.28003-0.2005 0.287-0.20888 0.29395-0.21725 0.3009-0.22562 0.46437-0.35412 0.31824-0.24653 0.32516-0.25489 0.33208-0.26325 0.33899-0.2716c0.057073-0.045963 0.11443-0.092274 0.17208-0.13893l0.34933-0.28413 0.17725-0.14519c0.19948-0.16378 0.40519-0.32949 0.61715-0.49712l0.32261-0.25289c0.054548-0.042389 0.10949-0.084899 0.16481-0.12753l0.33665-0.25723 0.34601-0.26012c0.1169-0.08719 0.23535-0.17486 0.35537-0.26302l0.36474-0.26592 0.3741-0.26882c0.12626-0.090089 0.25409-0.18066 0.38347-0.27172l0.39284-0.27462 0.40221-0.27753 0.41158-0.28043 0.42096-0.28334 0.43033-0.28625 0.43971-0.28917 0.44909-0.29208 0.45847-0.295 0.46785-0.29792c0.078757-0.049897 0.15791-0.099915 0.23744-0.15006l0.48193-0.3023 0.49131-0.30523 0.5007-0.30815 0.51009-0.31108 0.51948-0.31401c0.087362-0.05258 0.17512-0.10528 0.26326-0.1581 6.9043-4.1376 15.855-1.8948 19.993 5.0095 0.59401 0.9912 1.0679 2.0493 1.4118 3.1518l0.071707 0.23694c1.435 4.891 6.5632 7.6927 11.454 6.2577 0.85145-0.24981 1.6624-0.6211 2.4079-1.1024 3.1666-2.0446 6.3806-2.8818 9.6182-2.4916l0.17347 0.022078c2.4027 0.32203 4.6392-1.2723 6.682-4.8992l0.15879-0.28673c0.39598-0.72713 0.78459-1.5315 1.1656-2.414l0.152-0.35716c0.050533-0.12044 0.10093-0.24228 0.15119-0.36551l0.15038-0.37386c2.7152-6.8446 10.465-10.192 17.31-7.4769z" fill="#9BE5FF" fill-rule="nonzero"/>
</g>
<ellipse cx="101.88" cy="99.75" rx="37.875" ry="1" fill="#8C8C8C" filter="url(#b)"/>
<path d="m148.5 4h-92c-1.3807 0-2.5 1.1193-2.5 2.5v76c0 1.3807 1.1193 2.5 2.5 2.5h92c1.3807 0 2.5-1.1193 2.5-2.5v-76c0-1.3807-1.1193-2.5-2.5-2.5zm0 0.5c1.1046 0 2 0.89543 2 2v76c0 1.1046-0.89543 2-2 2h-92c-1.1046 0-2-0.89543-2-2v-76c0-1.1046 0.89543-2 2-2h92z" fill="#F2D1CF" fill-rule="nonzero"/>
</g>
</g>
</g>
</svg>
